!!!OTL: Narodzilo sie nam
**kern
*staff1
=--
*clefC1
*k[]
1a
2g
2f
1e
=-
1f
1g
1f
=-
1e
1f
1f
=-
2e
2f
1g
1f
=-
1f
1e
1f
=-
!!linebreak:original
1g
0a
=-
1a
0g
=-
1g
1.g
2f
2g
0b
1b
0a
1a
=-
1g
0f
0e
=-
!!linebreak:original
1e
0g
1g
=-
0a
1a
1.g
2f
2g
1b
1a
1g
=-
0f
1e
=-
0f
1a
=-
2g
2f
1e
1f
=-=
*-
!!title: @{OTL}, @{GTL}, ed. @{ENC}
!!!pag:
!!!GTL: Hymnbook C
!!!EFL: 
!!!YEM: Creative Commons CC/BY/NC/SA 4.0
!!!ENC: Marcin Konik
!!!END: 2015-0m-dd
!!!EED: Marcin Konik
!!!EEV: 
!!!ONB: Encoded in vim by Marcin Konik
!!!CharacterEncoding: utf-8
!!!RDF**kern: l=long note in original notation
!!!RDF**kern: i=editorial accidental
!!muse2ps: z14jc180F
!!!COM: Anonim
!!!CDT: [?]
!!!TXO: Polish
!!!ODT: 
!!!GTL: Hymnbook C
!!!ARL: Opactwo św. Wojciecha, Staniątki 
!!!voices:	1
